X: 34721
T: Road To Glountane, The
R: barndance
M: 4/4
K: Dmajor
|A2AB d2de|fdfa gfed|
dB|:A2AB d2de|faaf edB2|b2 af defb|afed BddB|
A2AB d2de|faaf edB2|b2 af defb|afef d2:|
|:afab d'2 d'b|afed Bdde|feed feed|fded Bddb|
afab d'2 d'b|afed Bdde|feed feed|faef d4:|

